icons/Logos/honor-of-kings-fill.svg

<svg viewBox="0 0 24 24" xmlns="http://www.w3.org/2000/svg"><path d="M21.1592 4.25759C21.1934 7.75736 21.7504 9.06895 21.947 10.9594C22.248 13.8533 21.2897 16.8534 19.072 19.0711C15.4057 22.7374 9.60078 22.9617 5.67278 19.744L8.52438 16.8913C10.8676 18.561 14.1415 18.3448 16.2436 16.2426C18.346 14.1403 18.562 10.8658 16.8917 8.52257L21.1592 4.25759ZM18.3292 4.25604L15.4776 7.10872C13.1344 5.439 9.86048 5.65522 7.75834 7.75736C5.65619 9.8595 5.43998 13.1334 7.10969 15.4766L2.8428 19.7424C2.80859 16.2426 2.25158 14.931 2.05494 13.0406C1.75392 10.1467 2.71224 7.1466 4.92991 4.92893C8.59624 1.2626 14.4012 1.03831 18.3292 4.25604ZM12.001 8C14.2101 8 16.001 9.79086 16.001 12C16.001 14.2091 14.2101 16 12.001 16C9.79184 16 8.00098 14.2091 8.00098 12C8.00098 9.79086 9.79184 8 12.001 8ZM12.001 10.5C11.1725 10.5 10.501 11.1716 10.501 12C10.501 12.8284 11.1725 13.5 12.001 13.5C12.8294 13.5 13.501 12.8284 13.501 12C13.501 11.1716 12.8294 10.5 12.001 10.5Z"/></svg>

<svg xmlns="http://www.w3.org/2000/svg" viewBox="0 0 24 24">
    <g>
        <path fill="none" d="M0 0H24V24H0z"/>
        <path d="M21.158 4.258c.034 3.5.591 4.811.788 6.701.301 2.894-.657 5.894-2.875 8.112-3.666 3.666-9.471 3.89-13.4.673l2.852-2.853c2.344 1.67 5.617 1.454 7.72-.648 2.102-2.103 2.318-5.377.648-7.72l4.267-4.265zm-2.83-.002l-2.851 2.853c-2.344-1.67-5.617-1.454-7.72.648-2.102 2.103-2.318 5.376-.648 7.72l-4.267 4.265c-.034-3.5-.591-4.811-.788-6.701-.301-2.894.657-5.894 2.875-8.112 3.666-3.666 9.471-3.89 13.4-.673zM12 8c2.21 0 4 1.79 4 4s-1.79 4-4 4-4-1.79-4-4 1.79-4 4-4zm0 2.5c-.828 0-1.5.672-1.5 1.5s.672 1.5 1.5 1.5 1.5-.672 1.5-1.5-.672-1.5-1.5-1.5z"/>
    </g>
</svg>
